X: 20032
T: Jimmy Doyle's
R: polka
M: 2/4
K: Dmajor
|:d^c/d/ ed|=cA A2|d^c/d/ ef|g2 fe|
d^c/d/ ed|=cA Ag|f/g/a ge|d2 d2:|
|:f>e fd|g>f ge|f>e fa|ge =ce|
f>e fd|g>f ge|f/g/a ge|d2 d2:|

